X: 19
T: Under the Rose
R: jig
M: 6/8
L: 1/8
Z: 2010 John Chambers <jc:trillian.mit.edu>
B: Longman ed. "Twenty Four Country Dances", p.34 London 1770
K: Bb
   F | BFD B,2d | cAF A,2e | dcB fed | ccc c2 :|
|: F | BGB G2G  | cGc A2F  | fed edc | BBB B2 :|


%%sep 5 1 500

